X: 14086
T: Frères Cadets
R: slip jig
M: 9/8
K: Gmajor
|:GFG AGA BGD|EAG FED dcB|GFG AGA BGD|1 EFG AGF G2 D:|2 EFG AGF G2 F||
|:EB,E EB,E EB,E|FEF DFA dcB|G2 D GBd dBG|cBc ABc def|
[1[M:12/8] gdB c2 e dcB AGF:|2 [M:9/8] gdB c2 e dcB|AGF DEF G3||

